X:1
T:L'INVITATION AU VOYAGE
T:HENRI DUPARC
T:CH. BAUDELAIRE
T:L'INVITATION AU VOYAGE
T:Copyright @ 2009 by the Choral Public Domain Library (http://www.cpdl.org) Edition may be freely distributed, duplicated, performed, or recorded.
T:Copyright @ 2009 by the Choral Public Domain Library (http://www.cpdl.org) Edition may be freely distributed, duplicated, performed, or recorded.
T:Copyright @ 2009 by the Choral Public Domain Library (http://www.cpdl.org) Edition may be freely distributed, duplicated, performed, or recorded.
T:Copyright @ 2009 by the Choral Public Domain Library (http://www.cpdl.org) Edition may be freely distributed, duplicated, performed, or recorded.
T:Copyright @ 2009 by the Choral Public Domain Library (http://www.cpdl.org) Edition may be freely distributed, duplicated, performed, or recorded.
T:Copyright @ 2009 by the Choral Public Domain Library (http://www.cpdl.org) Edition may be freely distributed, duplicated, performed, or recorded.
T:Copyright @ 2009 by the Choral Public Domain Library (http://www.cpdl.org) Edition may be freely distributed, duplicated, performed, or recorded.
T:Copyright @ 2009 by the Choral Public Domain Library (http://www.cpdl.org) Edition may be freely distributed, duplicated, performed, or recorded.
T:Copyright @ 2009 by the Choral Public Domain Library (http://www.cpdl.org) Edition may be freely distributed, duplicated, performed, or recorded.
T:Copyright @ 2009 by the Choral Public Domain Library (http://www.cpdl.org) Edition may be freely distributed, duplicated, performed, or recorded.
T:Copyright @ 2009 by the Choral Public Domain Library (http://www.cpdl.org) Edition may be freely distributed, duplicated, performed, or recorded.
T:Copyright @ 2009 by the Choral Public Domain Library (http://www.cpdl.org) Edition may be freely distributed, duplicated, performed, or recorded.
T:Copyright @ 2009 by the Choral Public Domain Library (http://www.cpdl.org) Edition may be freely distributed, duplicated, performed, or recorded.
T:Copyright @ 2009 by the Choral Public Domain Library (http://www.cpdl.org) Edition may be freely distributed, duplicated, performed, or recorded.
C:HENRI DUPARC
Z:CH. BAUDELAIRE
Z:Copyright @ 2009 by the Choral Public Domain Library (http://www.cpdl.org)
Z:Edition may be freely distributed, duplicated, performed, or recorded.
%%score 1 { ( 2 5 ) | ( 3 4 ) }
L:1/8
Q:1/4=60
M:6/8
K:C
V:1 treble nm="P1"
V:2 treble nm="P2"
V:5 treble 
V:3 bass 
V:4 bass 
V:1
"^Presque lent" z6 | z6 | z2"^doux et tendre" z z EE | F3- F z F | E2 z A3- | A2 A G2 F | %6
w: ||Mon en-|fant, _ ma|sœur, Songe|_ à la dou-|
 E2 E A2 A |!<(! B3 d2!<)! d |!>(! (e6!>)! | E2) z z z E | E3 A2 c | B3- B z B | e3 A2 c | %13
w: ceur D'al- ler la-|bas vivre en-|sem-|ble, Ai-|mer à loi-|sir, _ Ai-|mer et mou-|
 B2 z A2 G | F3 FED | E3 E z z | z6 | z2 z z EE |!<(! F3- F2!<)! B | ^c3 z EE |!<(! F3- F2!<)! B | %21
w: rir Au pa-|ys qui te res-|sem- ble!||Les so-|leils _ mouil-|lés De ces|ciels _ brouil-|
 ^c2 z"^retenez en peu" cec |"^a Tempo" B3 A2 G |!p! ^F3 F3 | =F2 F G2 F | E2 z!>(! A3- | %26
w: lés Pour mon es-|prit ont les|char- mes|Si mys- té- ri-|eux De|
 A2 A!>)! G2 F | E2 z E A2 |"^dim." B2 B d2 d |"^très doux" (e6 | E3) z2 z || %31
w: _ tes trai- tres|yeux, Bril- lant|à tra- vers leurs|lar-|mes.|
[M:9/8]"^Un peu plus vite"[Q:1/4=120][Q:1/4=120] z2 z A6 | z2 z (2:3:2AA A3- | A3 A3 A3 | A6 z2 z | %35
w: |tout n'est qu'ordre|_ et beau-|té,|
 z2 z E3 E2 z | z2 z E3- E2 z | E3"^rall." E3- (2:3:2EE | E6 !fermata!z2 z || %39
w: Lu- xe,|cal- me|et vo- * lup-|té.|
[M:6/8]"^1er Mouvt." z6 | z6 | z2 z E3 | F3 F2 F | E2 E A3 | A3 G2 F | E2 z A2 A | B2 B d2 d | %47
w: ||Vois|sur ces ca-|naux Dor- mir|_ ces vais-|seaux Dont l'hu-|meur est va- ga-|
 (e6 | E2) z z2 z |"^più" A2 A c2 A | d3- d2 f | e3 c2 A | B z"^cresc. molto" B B3- | %53
w: bon-|de;|C'est pour as- sou-|vir _ Ton|moin- dre dé-|sir Qu'ils vien-|
!f! B3 ^G2 ^F | E3- E2 ^G |"^dim." ^F6 | E2 z z2 z || %57
w: * nent du|bout _ du|mon-|de.|
[K:A][M:9/8]"^Un peu plus vite"[Q:1/4=120][Q:1/4=120] z2 z[Q:3/8=69] z2 z!mf! E2 E | ^A6- A2 A | %59
w: Les so-|leils _ cou-|
 B3- B2 z!<(! B3!<)! |!>(! e3 d3- d2!>)! c | B3- B2 z B2"^poco" ^A | B3- B z B (2:3:2cc | (d6 B3 | %64
w: Là, * Re-|vê- tent _ les|champs, _ Les ca-|naux _ la ville en-|tiè- *|
 F3) z2 z z2 z |"^più"!p! (2:3:2=FF =G3- G2 F | E6 z2 E | A3 A3- (2:3:2AB | =c6 E3 | %69
w: re|D'hy- a- cinthe _ et|d'or; Le|mon- de _ s'en-|dort Dans|
 (2:3:2AB"^cresc." d3"^molto" d2 d |!ff! e6- e3 | E3 z2 z z2 z | z9 | z9 | z2 z!pp! A6 | %75
w: u- ne chau- de lu-|miè- *|re!|||Là,|
 z2 z (2:3:2AA A3- | A3 A3 A3 | A6 z2 z |"^sempre"!pp! z2 z E3 E2 z | z2 z E3 E2 z | %80
w: tout n'est qu'ordre|_ et beau-|té,|Lu- xe,|cal- me|
"^presque sans ralentir" E3 E3 (2:3:2EE |"^a Tempo" E6 z2 z | z9 | z9 | z9 | z9 | z9 | z9 |] %88
w: et vo- * lup-|te!|||||||
V:2
"^Presque lent" ([Ec]/C/[Ec]/C/[Ec]/C/ [Ec]/C/[Ec]/C/[Ec]/C/) | %1
 ([^DB]/B,/[DB]/B,/[DB]/B,/ [DB]/B,/[DB]/B,/[DB]/B,/) | %2
 ([Ec]/C/[Ec]/C/[Ec]/C/ [Ec]/C/[Ec]/C/[Ec]/C/) | %3
 ([^DB]/B,/[DB]/B,/[DB]/B,/ [DB]/B,/[DB]/B,/[DB]/B,/) | %4
 ([Ec]/C/[Ec]/C/[Ec]/C/ [Ec]/C/[Ec]/C/[Ec]/C/) | %5
 ([^DB]/B,/[DB]/B,/[DB]/B,/ [DB]/B,/[DB]/B,/[DB]/B,/) | %6
 ([Ec]/C/[Ec]/C/[Ec]/C/ [Ec]/C/[Ec]/C/[Ec]/C/) | %7
 ([=DB]/B,/[DB]/B,/[DB]/B,/ [DA]/B,/[DA]/B,/[DA]/B,/) | %8
 ([E^c]/^C/[Ec]/C/[Ec]/C/ [Ec]/C/[Ec]/C/[Ec]/C/) | ([Ae]/E/[Ae]/E/[Ae]/E/ [Ae]/E/[Ae]/E/[Ae]/E/) | %10
 ([A^f]/E/[Af]/E/[Af]/E/ [Af]/E/[Af]/E/[Af]/E/) | ([A=f]/=F/[Af]/F/[Af]/F/ [Af]/F/[Af]/F/[Af]/F/) | %12
 ([A^f]/E/[Af]/E/[Af]/E/ [Af]/E/[Af]/E/[Af]/E/) | ([A=f]/=F/[Af]/F/[Af]/F/ [Af]/F/[Af]/F/[Af]/F/) | %14
 ([db]/A/[db]/A/[db]/A/ [db]/A/[db]/A/[db]/A/) | ([d_b]/_B/[db]/B/[db]/B/ [db]/B/[db]/B/[db]/B/) | %16
 ([d=b]/A/[db]/A/[db]/A/ [db]/A/[db]/A/[db]/A/) | ([d_b]/_B/[db]/B/[db]/B/ [db]/B/[db]/B/[db]/B/) | %18
 ([Fd]/D/[Fd]/D/[Fd]/D/ [Fd]/D/[Fd]/D/[Fd]/D/) | ([E^c]/^C/[Ec]/C/[Ec]/C/ [Ec]/C/[Ec]/C/[Ec]/C/) | %20
 ([Fd]/D/[Fd]/D/[Fd]/D/ [Fd]/D/[Fd]/D/[Fd]/D/) | ([E^c]/^C/[Ec]/C/[Ec]/C/ [Ec]/C/[Ec]/C/[Ec]/C/) | %22
"^a Tempo" ([e^c']/B/[ec']/B/[ec']/B/ [ec']/B/[ec']/B/[ec']/B/) | %23
!p! ([e=c']/=c/[ec']/c/[ec']/c/ [ec']/c/[ec']/c/[ec']/c/) | %24
 ([^db]/B/[db]/B/[db]/B/ [db]/B/[db]/B/[db]/B/) | %25
 ([ec']/c/[ec']/c/[ec']/c/ [ec']/c/[ec']/c/[ec']/c/) | %26
 ([^db]/B/[db]/B/[db]/B/ [db]/B/[db]/B/[db]/B/) | %27
 ([ec']/c/[ec']/c/[ec']/c/ [ec']/c/[ec']/c/[ec']/c/) | %28
 ([=db]/B/[db]/B/[db]/B/ [da]/B/[da]/B/[da]/B/) | %29
 ([e^c']/^c/[ec']/c/[ec']/c/ [ec']/c/[ec']/c/[ec']/c/) | %30
!8va(! ([ae']/e/[ae']/e/[ae']/e/ [ae']/e/[ae']/e/[ae']/!8va)!e/) || %31
[M:9/8]!pp!"^Un peu plus vite"!8va(! [ea=c'^f']6- [eac'f']3 | [f=ab=f']6- [fabf']3 | %33
 [eabe']6- [eabe']3 | [ea^c'e']6-!8va)! [eac'e']3 |!8va(! [ea=c'^f']6- [eac'f']3 | %36
 [=fab=f']6- [fabf']3 |"^rall." [eabe']6- [dabd']3 | [^ceac']6-!8va)! !fermata![cea^c']3 || %39
[M:6/8]!p!"^1er Mouvt." ([E=c]/=C/[Ec]/C/[Ec]/C/ [Ec]/C/[Ec]/C/[Ec]/C/) | %40
 ([^DB]/B,/[DB]/B,/[DB]/B,/ [DB]/B,/[DB]/B,/[DB]/B,/) | %41
 ([Ec]/C/[Ec]/C/[Ec]/C/ [Ec]/C/[Ec]/C/[Ec]/C/) | %42
 ([^DB]/B,/[DB]/B,/[DB]/B,/ [DB]/B,/[DB]/B,/[DB]/B,/) | %43
 ([Ec]/C/[Ec]/C/[Ec]/C/ [Ec]/C/[Ec]/C/[Ec]/C/) | %44
 ([^DB]/B,/[DB]/B,/[DB]/B,/ [DB]/B,/[DB]/C/[DB]/B,/) | %45
 ([Ec]/C/[Ec]/C/[Ec]/C/ [Ec]/C/[Ec]/C/[Ec]/C/) | %46
 ([=DB]/B,/[DB]/B,/[DB]/B,/ [DA]/B,/[DA]/B,/[DA]/B,/) | %47
 ([E^c]/C/[Ec]/^C/[Ec]/C/ [Ec]/C/[Ec]/C/[Ec]/C/) | ([Ae]/E/[Ae]/E/[Ae]/E/ [Ae]/E/[Ae]/E/[Ae]/E/) | %49
 ([A^f]/[E=c]/[Af]/[Ec]/[Af]/[Ec]/ [Af]/[Ec]/[Af]/[Ec]/[Af]/[Ec]/) | %50
 ([A=f]/[=Fd]/[Af]/[Fd]/[Af]/[Fd]/ [Af]/[Fd]/[Af]/[Fd]/[Af]/[Fd]/) | %51
 ([A^f]/[Ec]/[Af]/[Ec]/[Af]/[Ec]/ [Af]/[Ec]/[Af]/[Ec]/[Af]/[Ec]/) | %52
 ([A^f]/[^F^d]/[Af]/[Fd]/"^cresc. molto"[Af]/[Fd]/ [Af]/[Fd]/[Af]/[Fd]/[Af]/[Fd]/) | %53
 ([B^g]/^G/[Bg]/G/[Bg]/G/ [Bg]/G/[Bg]/G/[Bg]/G/) | %54
 ([^c^g]/^G/[cg]/G/[cg]/G/ [ca]/A/[ca]/A/[ca]/A/) | %55
 ([^ca]/A/[ca]/A/[ca]/A/ [^da]/A/[da]/A/[da]/A/) | %56
 ([B^g]/^G/[Bg]/G/[Bg]/G/ [Bg]/G/[Bg]/G/[Bg]/G/) ||[K:A][M:9/8]"^Un peu plus vite" x9 | x9 | x9 | %60
 x9 | x9 | x9 | x9 | x9 | x9 | x9 | x9 | x9 | x9 | %70
!ff! (3z/ (^C/^F/(3E/A/e/(3^c/A/E/) (3(A,/C/F/ (3E/A/e/(3c/A/E/) (3(A,/C/F/ (3E/A/e/(3c/A/E/) | %71
"^poco a poco dim." (3(C/E/B/ (3A/c/a/(3e/c/A/) (3(C/E/B/ (3A/c/a/(3e/c/A/) (3(C/E/B/ (3A/c/a/(3e/c/A/) | %72
 x9 | x9 | %74
 (3z/ f/e/(3a/=c'/f'/(3c'/a/e/-"^cantabile" (3e/f/e/(3a/c'/f'/(3c'/a/e/- (3e/f/e/(3a/c'/f'/(3c'/a/e/ | %75
 (3z/ (d/a/(3d/a/=f'/(3b/a/d/)[I:staff +1] (3(B/d/=f/[I:staff -1](3d/a/f'/(3b/a/d/)[I:staff +1] (3(B/d/f/[I:staff -1](3d/a/f'/(3b/a/d/) | %76
[I:staff +1] (3(B/d/e/[I:staff -1](3d/a/e'/(3b/a/d/)[I:staff +1] (3(B/d/e/[I:staff -1](3d/a/e'/(3b/a/d/)[I:staff +1] (3(B/d/e/[I:staff -1](3d/a/e'/(3b/a/d/) | %77
[I:staff +1] (3(A/c/f/[I:staff -1](3e/a/e'/(3b/a/e/)[I:staff +1] (3(A/c/f/[I:staff -1](3e/a/e'/(3b/a/e/)[I:staff +1] (3(A/c/f/[I:staff -1](3e/a/e'/(3b/a/e/) | %78
 (3z/ (f/"^sempre"!pp!e/(3a/=c'/f'/(3c'/a/e/-) (3e/(f/e/(3a/c'/f'/(3c'/a/e/-) (3e/(f/e/(3a/c'/f'/(3c'/a/e/) | %79
 (3z/ (d/a/(3d/a/=f'/(3b/a/d/)[I:staff +1] (3(B/d/=f/[I:staff -1](3d/a/f'/(3b/a/d/)[I:staff +1] (3(B/d/f/[I:staff -1](3d/a/f'/(3b/a/d/) | %80
[I:staff +1] (3(B/d/e/[I:staff -1](3d/a/e'/(3b/a/d/)[I:staff +1] (3(B/d/e/[I:staff -1](3d/a/e'/(3b/a/d/)[I:staff +1] (3(B/d/e/[I:staff -1](3d/a/e'/(3b/a/d/) | %81
"^a Tempo"[I:staff +1] (3(A/c/f/[I:staff -1](3e/a/e'/(3b/a/e/)[I:staff +1] (3(A/c/f/[I:staff -1](3e/a/e'/(3b/a/e/)[I:staff +1] (3(A/c/f/[I:staff -1](3e/a/e'/(3b/a/e/) | %82
[I:staff +1] (3(A/c/f/[I:staff -1](3e/a/e'/(3b/a/e/)[I:staff +1] (3(A/c/f/[I:staff -1](3e/a/e'/(3b/a/e/)[I:staff +1] (3(A/c/f/[I:staff -1](3e/a/e'/(3b/a/e/) | %83
 x9 |[I:staff +1] (4:6:4(A/c/f/[I:staff -1]e/) (4:6:4(a/e'/b/a/) (4:6:4(e/[I:staff +1]A/c/f/) | %85
[I:staff -1] (eae') (bae)[I:staff +1] (Acf) |[I:staff -1] (eab"^rall." c'3 e'3) | %87
!ppp!!8va(! [ac'a'-]6!8va)! !fermata![ac'a']3 |] %88
V:3
!pp! z/ E,/A,/E,/A,/E,/ A,/E,/A,/E,/A,/E,/ | F,/A,/F,/A,/F,/A,/ F,/A,/F,/A,/F,/ z/ | %2
 z/ E,/A,/E,/A,/E,/ A,/E,/A,/E,/A,/E,/ | F,/A,/F,/A,/F,/A,/ F,/A,/F,/A,/F,/ z/ | %4
 z/ E,/A,/E,/A,/E,/ A,/E,/A,/E,/A,/E,/ | F,/A,/F,/A,/F,/A,/ F,/A,/F,/A,/F,/ z/ | %6
 z/ E,/A,/E,/A,/E,/ A,/E,/A,/E,/A,/E,/ | F,/A,/F,/A,/F,/A,/ F,/A,/F,/A,/F,/ z/ | %8
 z/ E,/A,/E,/A,/E,/ A,/E,/A,/E,/A,/E,/ | ^C/A,/C/A,/C/A,/ C/A,/C/A,/C/ z/ | %10
 z/ A,/=C/A,/C/A,/ C/A,/C/A,/C/A,/ | D/B,/D/B,/D/B,/ D/B,/D/B,/D/ z/ | %12
 z/ A,/C/A,/C/A,/ C/A,/C/A,/C/A,/ | D/B,/D/B,/D/B,/ D/B,/D/B,/D/ z/ | [A,,,E,,]6 | z6 | %16
 [A,,,E,,]6 | z6 | z/!<(! A,/B,/A,/B,/A,/ B,/^G,/B,/G,/B,/!<)!G,/ | %19
!>(! B,/=G,/B,/G,/B,/G,/ B,/G,/B,/G,/!>)!B,/ z/ | z/ A,/B,/A,/B,/A,/ B,/^G,/B,/G,/B,/G,/ | %21
 B,/=G,/B,/G,/B,/G,/ B,/G,/B,/G,/"^suivez"B,/ z/ |"^dim." [A,,,E,,]6 | x6 | x6 | x6 | x6 | x6 | %28
"^dim." x6 | [A,,,E,,]6- | [A,,,E,,]4 z2 ||[M:9/8] [A,=CE^F]6- [A,=CEF]3 | [A,B,D=F]6- [A,B,DF]3 | %33
 [A,B,DE]6- [A,B,DE]3 | [A,^CE]6- [A,CE]3 | [A,=CE^F]6- [A,CEF]3 | [A,B,DF]6- [A,B,DF]3 | %37
 [A,B,DE]6- [A,B,DE]3 | [A,^CE]6- [A,CE]3 ||[M:6/8] z/ E,/A,/E,/A,/E,/ A,/E,/A,/E,/A,/E,/ | %40
 F,/A,/F,/A,/F,/A,/ F,/A,/F,/A,/F,/ z/ | z/ E,/A,/E,/A,/E,/ A,/E,/A,/E,/A,/E,/ | %42
 F,/A,/F,/A,/F,/A,/ F,/A,/F,/A,/F,/ z/ | z/ E,/A,/E,/A,/E,/ A,/E,/A,/E,/A,/E,/ | %44
 F,/A,/F,/A,/F,/A,/ F,/A,/F,/A,/F,/ z/ | z/ E,/A,/E,/A,/E,/ A,/E,/A,/E,/A,/E,/ | %46
 F,/A,/F,/A,/F,/A,/ F,/A,/F,/A,/F,/ z/ | z/ E,/A,/E,/A,/E,/ A,/E,/A,/E,/A,/E,/ | %48
 ^C/A,/C/A,/C/A,/ C/A,/C/A,/C/ z/ | E,3 A,2 C | B,3- B,2 B, | E3 A,2 C | B,6 |!f! [B,,,,B,,,]6- | %54
 [B,,,,B,,,]6- |"^dim." [B,,,,B,,,]6 | [E,,,E,,]6 || %57
[K:A][M:9/8][K:treble] (3E/G/c/[I:staff -1](3B/d/b/(3g/d/B/[I:staff +1] (3E/G/c/[I:staff -1](3B/d/b/(3g/d/B/[I:staff +1] (3E/G/c/[I:staff -1](3B/d/b/(3g/d/B/ | %58
[I:staff +1] (3E/^^F/B/[I:staff -1](3^A/d/^a/(3^^f/d/A/[I:staff +1] (3E/=F/B/[I:staff -1](3A/d/a/(3=f/d/A/[I:staff +1] (3E/F/B/[I:staff -1](3A/d/a/(3f/d/A/ | %59
[I:staff +1] (3E/G/c/[I:staff -1](3B/d/b/(3g/d/B/[I:staff +1] (3E/G/c/[I:staff -1](3B/d/b/(3g/d/B/[I:staff +1] (3E/G/c/[I:staff -1](3B/d/b/(3g/d/B/ | %60
!>(![I:staff +1] (3E/^^F/B/[I:staff -1](3^A/d/^a/(3^^f/d/A/[I:staff +1] (3E/=F/B/[I:staff -1](3A/d/a/(3=f/d/A/[I:staff +1] (3E/G/c/[I:staff -1](3B/d/b/(3g/d/B/!>)! | %61
[I:staff +1] (3G/B/e/[I:staff -1](3d/^f/d'/(3b/f/d/[I:staff +1] (3G/B/e/[I:staff -1](3d/f/d'/(3b/f/d/[I:staff +1] (3^^F/B/^f/[I:staff -1](3c/^e/c'/(3b/e/c/ | %62
[I:staff +1] (3G/B/=e/[I:staff -1](3d/f/d'/(3b/f/d/[I:staff +1] (3G/B/e/[I:staff -1](3d/f/d'/(3b/f/d/[I:staff +1] (3^^F/B/^f/[I:staff -1](3c/^e/c'/(3b/e/c/ | %63
[I:staff +1] (3G/B/=e/[I:staff -1](3d/^f/d'/(3b/f/d/[I:staff +1] (3G/B/e/[I:staff -1](3d/f/d'/(3b/f/d/[I:staff +1] (3G/B/e/[I:staff -1](3d/f/d'/(3b/f/d/ | %64
[I:staff +1] (3B/d/g/[I:staff -1](3f/b/f'/(3d'/b/f/[I:staff +1] (3A/B/e/[I:staff -1](3d/f/d'/(3b/f/d/[I:staff +1] (3F/A/c/[I:staff -1](3B/d/b/(3f/d/B/ | %65
[I:staff +1] (3=F/A/e/[I:staff -1](3B/^d/b/(3a/d/B/[I:staff +1] (3=G/A/e/[I:staff -1](3B/d/b/(3a/d/B/[I:staff +1] (3F/A/e/[I:staff -1](3B/d/b/(3a/d/B/ | %66
[I:staff +1] (3E/A/=d/[I:staff -1](3=c/e/=c'/(3a/e/c/[I:staff +1] (3E/A/d/[I:staff -1](3c/e/c'/(3a/e/c/[I:staff +1] (3E/A/d/[I:staff -1](3c/e/c'/(3a/e/c/ | %67
[I:staff +1] (3=F/A/=c/[I:staff -1](3B/d/b/(3=f/d/B/[I:staff +1] (3F/A/e/[I:staff -1](3B/d/b/(3a/d/B/[I:staff +1] (3F/A/e/[I:staff -1](3B/d/b/(3a/d/B/ | %68
[I:staff +1] (3E/A/=d/[I:staff -1](3=c/e/=c'/(3a/e/c/[I:staff +1] (3E/A/d/[I:staff -1](3c/e/c'/(3a/e/c/[I:staff +1] (3E/A/d/[I:staff -1](3c/e/c'/(3a/e/c/ | %69
[I:staff +1] (3=F/A/=c/[I:staff -1](3B/d/b/(3=f/d/B/[I:staff +1] (3A,/D/=G/[I:staff -1](3F/B/f/(3d/B/F/[I:staff +1] (3F,/A,/=C/[I:staff -1](3B,/D/B/(3F/D/B,/ | %70
[I:staff +1] [A,,,E,,A,,]6- [A,,,E,,A,,]3- | [A,,,E,,A,,]6- [A,,,E,,A,,]3 | %72
"^dim.  -   -   -   -   -   -   -   -   -   -   -  -" (3C/E/B/[I:staff -1](3A/c/a/(3e/c/A/[I:staff +1] (3E/A/d/[I:staff -1](3c/e/c'/(3a/e/c/[I:staff +1] (3E/A/d/[I:staff -1](3c/e/c'/(3a/e/c/ | %73
"^molto"[I:staff +1] (3A/c/f/[I:staff -1](3e/a/e'/(3c'/a/e/[I:staff +1] (3A/c/f/[I:staff -1](3e/a/e'/(3c'/a/e/[I:staff +1] (3A/c/f/[I:staff -1](3e/a/e'/(3c'/a/e/ | %74
[I:staff +1] z2 z[K:treble]!mf! E3 A2 =c | B6 x3 | x9 | x9 | %78
 z2 z[K:treble]!mf!"^cantabile" E3 A,2 =C | B,6 x3 |"^presque sans ralentir" x9 | x9 | %82
"^en diminuant jusqu'à la fin" x9 | %83
 A/c/f/[I:staff -1]e/a/e'/ b/a/e/[I:staff +1]A/c/f/[I:staff -1] e/a/e'/b/a/e/ |[I:staff +1] z9 | %85
 x9 | x9 | [A,,,E,,A,,]6- !fermata![A,,,E,,A,,]3 |] %88
V:4
 [A,,,E,,]6 | x6 | [A,,,E,,]6 | x6 | [A,,,E,,]6 | x6 | [A,,,E,,]6 | x6 | [A,,,E,,]6 | x6 | %10
 [A,,,E,,]6 | x6 | [A,,,E,,]6 | x6 | x6 | x6 | x6 | x6 | [A,,,E,,]6 | x6 | [A,,,E,,]6 | x6 | x6 | %23
 x6 | x6 | x6 | x6 | x6 | x6 | x6 | x6 ||[M:9/8] [A,,,E,,]6-{/A,,,} [A,,,-E,,-E,,] x2 | %32
 [A,,,E,,]6- [A,,,E,,]3- | [A,,,E,,]6- [A,,,E,,]3- | [A,,,E,,]6- [A,,,E,,]3 | %35
 [A,,,E,,]6- [A,,,E,,]3- | [A,,,E,,]6- [A,,,E,,]3- | [A,,,E,,]6- [A,,,E,,]3 | %38
 [A,,,E,,]6- !fermata![A,,,E,,]3 ||[M:6/8] [A,,,E,,]6 | x6 | [A,,,E,,]6 | x6 | [A,,,E,,]6 | x6 | %45
 [A,,,E,,]6 | x6 | [A,,,E,,]6 | x6 | x6 | x6 | x6 | x6 | x6 | x6 | x6 | x6 || %57
[K:A][M:9/8][K:treble] x9 | x9 | x9 | x9 | x9 | x9 | x9 | x9 | x9 | x9 | x9 | x9 | x9 | x9 | x9 | %72
 x9 | x9 | [A,,,E,,]6[K:treble] x3 | x6 x3 | x9 | x9 | [A,,,E,,]6[K:treble] x3 | x9 | x9 | x9 | %82
 x9 | x9 | x9 | x9 | x9 | x9 |] %88
V:5
 x6 | x6 | x6 | x6 | x6 | x6 | x6 | x6 | x6 | x6 | x6 | x6 | x6 | x6 | %14
 z/ (D/F/D/F/D/ F/D/F/D/F/D/) | (G/E/G/E/G/E/ G/E/G/E/G/) z/ | z/ (D/F/D/F/D/ F/D/F/D/F/D/) | %17
 (G/E/G/E/G/E/ G/E/G/E/G/) z/ | x6 | x6 | x6 | x6 | x/ (E/G/E/G/E/ G/E/G/E/G/E/) | %23
 (^F/A/F/A/F/A/ F/A/F/A/F/A/) | (=F/A/F/A/F/A/ G/A/G/A/F/A/) | (E/A/E/A/E/A/ E/A/E/A/E/A/) | %26
 (F/A/F/A/F/A/ G/A/G/A/F/A/) | (E/A/E/A/E/A/ E/A/E/A/E/A/) | (F/A/F/A/F/A/ F/A/F/A/F/A/) | %29
 z/ (E/A/E/A/E/ A/E/A/E/A/E/) |!8va(! (^C/A,/C/A,/C/A,/ C/A,/C/A,/C/)!8va)! z/ ||[M:9/8]!8va(! x9 | %32
 x9 | x9 | x6!8va)! x3 |!8va(! x9 | x9 | x9 | x6!8va)! x3 ||[M:6/8] x6 | x6 | x6 | x6 | x6 | x6 | %45
 x6 | x6 | x6 | x6 | x6 | x6 | x6 | x6 | x/ (B,/E/B,/E/B,/ E/B,/E/B,/E/B,/) | %54
 (E/B,/E/B,/E/B,/ E/B,/E/B,/E/B,/) | (^F/B,/F/B,/F/B,/ F/B,/F/B,/F/) z/ | %56
 x/ (B,/E/B,/E/B,/ E/B,/E/B,/E/B,/) ||[K:A][M:9/8] x9 | x9 | x9 | x9 | x9 | x9 | x9 | x9 | x9 | %66
 x9 | x9 | x9 | x9 | x9 | x9 | x9 | x9 | x9 | x9 | x9 | x9 | x9 | x9 | x9 | x9 | x9 | x9 | x9 | %85
 x9 | x9 |!8va(! x6!8va)! x3 |] %88

